X: 34057
T: Reel De La Grenouille
R: hornpipe
M: 4/4
K: Gmajor
|:G>G GF GD B,D|GA BG A2 GB|1 dd de dB GB|AA AG Fc BA:|2 dd de dB Gd|cE EF Gz GB||
|:dd de dB Gd|ee eg ee dd|1 ge dB GB BG|FA AB AG GB:|2 ge dB GB BG|FA AF Gz DC||
|:B,D GD BG DB|AF AB cF AG|1 FG AB cF FA|GD BG Dz DC:|2 FG AB cF FA|GD BD G z z2||

